.storybook/public/story-assets/icons-link_3_64.svg

<svg width="64" height="64" viewBox="0 0 64 64" fill="none" xmlns="http://www.w3.org/2000/svg">
<path fill-rule="evenodd" clip-rule="evenodd" d="M38.7 4H12C7.58172 4 4 7.58172 4 12V17H38.7V4ZM4 19V52C4 56.4183 7.58172 60 12 60H38.7V19H4ZM40.7 60H52C56.4183 60 60 56.4183 60 52V19H40.7V60ZM60 17V12C60 7.58172 56.4183 4 52 4H40.7V17H60Z" fill="#848894"/>
</svg>

<svg xmlns="http://www.w3.org/2000/svg" width="64" height="64" fill="none"><path fill="#848894" fill-rule="evenodd" d="M38.7 4H12a8 8 0 0 0-8 8v5h34.7zM4 19v33a8 8 0 0 0 8 8h26.7V19zm36.7 41H52a8 8 0 0 0 8-8V19H40.7zM60 17v-5a8 8 0 0 0-8-8H40.7v13z" clip-rule="evenodd"/></svg>
